X:31
T:Kitty Fisher. Ru2.031
%%VWML:RutherfordVol2-2249-p16-0
F:http://www.vwml.org/record/RutherfordVol2/2249/p16
B:RUTHERFORD Complete Collection of 200 Country Dances Vol.2; 1759.
Z:vmp.Mike Hicken 2015 www.village-music-project.org.uk
M:2/4
Q:1/4=140
K:G
G/A/B/c/ dB|Gg g2|G/A/B/c/ dB|FA A2| G/A/B/c/ dB|Ggge|fde^c|d2D2 :|
|: d/e/f/g/ a=c|Bg g2|G/A/B/c/ dG|FA A2|G/A/B/c/ dB|Ggge|dBcA|G2 [G2G,2] :|
W:
W: Half figure down on your own side .|
W: lead to the top and cast off :|  foot it
W: across and not turn .|.  lead thro the 3d
W: Cu: and cast up :|
T:Chances. Ru2.032, The
L:1/8
B:RUTHERFORD Complete Collection of 200 Country Dances Vol.2; 1759.
Z:vmp.Mike Hicken 2015 www.village-music-project.org.uk
N: * These two notes appear to be crotchets in the original.
N: They have been changed to dotted crotchets to give correct bar length.
M:6/8
Q:3/8=110
K:G
G3 d2c|BGB AFD|EGE AcA|F3 D3|G3 d2c|BGB AFD|(E/F/G)E AGF|G3G,3 :|
|:b2g b3|afa geg|faf gbd|^c3A3|afa bgb|afa geg|faf ed^c|d3D3|
G3 d2c|BGB AFD|EGE AcA|F3 D3|G3 d2c|BGB AFD|EGE cAF|G3 G,3 :|
|: BdB c2a|AcA B2g|EGE AcA|F3D3|G3 d2c|BGB AFD|EGE (F/G/AF)|"*"G3 "*"G,3:|
W:
W: Cast off two Cu: .|  lead up to the top and cast off :|  first Man
W: fall in between the 3d Cu:  his partner between the 2d at the
W: same time and foot it all 6 .|.  foot it and hands round 3 top
W: and bottom :||:  lead up to the top and cast off .||.  lead thro the
W: 3d Cu: cast up and turn :|
